src/images/JS.svg

<svg width="97" height="97" viewBox="0 0 97 97" fill="none" xmlns="http://www.w3.org/2000/svg">
<path fill-rule="evenodd" clip-rule="evenodd" d="M97 0H0V97H97V0ZM32.9277 76.5679L25.5049 81.0602L25.5046 81.0594C27.6533 85.6173 31.8861 89.3938 39.1781 89.3938C47.2526 89.3938 52.7869 85.0963 52.7869 75.6551V44.5325H43.6716V75.5262C43.6716 80.0837 41.7827 81.2553 38.7875 81.2553C35.6627 81.2553 34.36 79.1069 32.9277 76.5679ZM65.1601 75.7862L57.7381 80.0834L57.7377 80.0837C60.4071 85.3581 65.8766 89.395 74.341 89.395C83.0009 89.395 89.4469 84.9027 89.4469 76.6978C89.4469 69.0803 85.0845 65.6948 77.3359 62.3737L75.0572 61.3972C71.1506 59.7043 69.4577 58.5967 69.4577 55.8621C69.4577 53.6486 71.1506 51.9556 73.8204 51.9556C76.425 51.9556 78.1172 53.0624 79.6802 55.8621L86.7779 51.3039C83.783 46.0299 79.6158 44.0111 73.8208 44.0111C65.6815 44.0111 60.4727 49.2203 60.4727 56.0573C60.4727 63.4801 64.835 66.9963 71.4117 69.7953L73.6901 70.7729C77.8573 72.5954 80.3315 73.7026 80.3315 76.8278C80.3315 79.4324 77.9232 81.3209 74.1459 81.3209C69.6536 81.3209 67.1141 78.9769 65.1601 75.7862Z" fill="url(#paint0_linear_24_980)"/>
<defs>
<linearGradient id="paint0_linear_24_980" x1="1.9559e-06" y1="89.0101" x2="95.1911" y2="-4.70839" gradientUnits="userSpaceOnUse">
<stop stop-color="#5C03BC"/>
<stop offset="0.53125" stop-color="#E536AB"/>
<stop offset="1" stop-color="#F4E5F0"/>
</linearGradient>
</defs>
</svg>

<svg xmlns="http://www.w3.org/2000/svg" width="97" height="97" fill="none"><path fill="url(#a)" fill-rule="evenodd" d="M97 0H0v97h97V0ZM32.928 76.568l-7.423 4.492c2.148 4.557 6.381 8.334 13.673 8.334 8.075 0 13.609-4.298 13.609-13.739V44.532h-9.115v30.994c0 4.558-1.89 5.73-4.884 5.73-3.125 0-4.428-2.15-5.86-4.688Zm32.232-.782-7.422 4.297c2.67 5.275 8.139 9.312 16.603 9.312 8.66 0 15.106-4.492 15.106-12.697 0-7.618-4.362-11.003-12.111-14.324l-2.279-.977c-3.906-1.693-5.6-2.8-5.6-5.535 0-2.213 1.694-3.906 4.363-3.906 2.605 0 4.297 1.106 5.86 3.906l7.098-4.558c-2.995-5.274-7.162-7.293-12.957-7.293-8.14 0-13.348 5.21-13.348 12.046 0 7.423 4.362 10.94 10.939 13.738l2.278.978c4.167 1.822 6.642 2.93 6.642 6.055 0 2.604-2.409 4.493-6.186 4.493-4.492 0-7.032-2.344-8.986-5.535Z" clip-rule="evenodd"/><defs><linearGradient id="a" x1="0" x2="95.191" y1="89.01" y2="-4.708" gradientUnits="userSpaceOnUse"><stop stop-color="#5C03BC"/><stop offset=".531" stop-color="#E536AB"/><stop offset="1" stop-color="#F4E5F0"/></linearGradient></defs></svg>
